src/amo/components/CategoryIcon/img/nature.svg

<svg xmlns="http://www.w3.org/2000/svg" width="64" height="64" viewBox="0 0 64 64">
  <g class="two" fill="#0F1126">
    <path d="M64,38.8196721 C64,46.9087656 57.1786272,53.4662295 48.7639836,53.4662295 L15.2360164,53.4662295 C6.82137278,53.4662295 0,46.9087656 0,38.8196721 C0,33.0173545 3.54077664,27.9090764 8.79204247,25.5547526 C8.52233102,24.6362613 8.38199181,23.6796193 8.38199181,22.7042623 C8.38199181,17.0194722 13.0292557,12.3782251 18.8709394,12.0997798 C19.1611605,5.37016679 24.9282254,0 32,0 C39.0717746,0 44.8388395,5.37016679 45.1290606,12.0997798 C50.9707443,12.3782251 55.6180082,17.0194722 55.6180082,22.7042623 C55.6180082,23.6796193 55.477669,24.6362613 55.2079575,25.5547526 C60.4592234,27.9090764 64,33.0173545 64,38.8196721 Z M49.3719302,25.6688786 C49.971329,24.7749639 50.2919509,23.7610469 50.2919509,22.7042623 C50.2919509,19.6679113 47.7315383,17.2065574 44.5729877,17.2065574 L42.2663264,17.2065574 C40.5826677,17.2065574 39.3215461,15.7233537 39.6565434,14.1371946 C39.7611855,13.641731 39.8144611,13.1389906 39.8144611,12.6321311 C39.8144611,8.4833133 36.3157894,5.12 32,5.12 C27.6842106,5.12 24.1855389,8.4833133 24.1855389,12.6321311 C24.1855389,13.1389906 24.2388145,13.641731 24.3434566,14.1371946 C24.6784539,15.7233537 23.4173323,17.2065574 21.7336736,17.2065574 L19.4270123,17.2065574 C16.2684617,17.2065574 13.7080491,19.6679113 13.7080491,22.7042623 C13.7080491,23.7610469 14.028671,24.7749639 14.6280698,25.6688786 C15.6268851,27.1584641 14.7870359,29.1495409 12.9911,29.5497331 C8.53453735,30.5427981 5.3260573,34.3685337 5.3260573,38.8196721 C5.3260573,44.0810677 9.762873,48.3462295 15.2360164,48.3462295 L48.7639836,48.3462295 C54.237127,48.3462295 58.6739427,44.0810677 58.6739427,38.8196721 C58.6739427,34.3685337 55.4654627,30.5427981 51.0089,29.5497331 C49.2129641,29.1495409 48.3731149,27.1584641 49.3719302,25.6688786 Z"/>
  </g>
  <g class="one" fill="#0F1126">
    <path d="M30.44,40.3151114 L30.44,60.16 L19.6754098,60.16 C18.9684854,60.16 18.3954098,60.7330755 18.3954098,61.44 C18.3954098,62.1469245 18.9684854,62.72 19.6754098,62.72 L43.8485246,62.72 C44.5554491,62.72 45.1285246,62.1469245 45.1285246,61.44 C45.1285246,60.7330755 44.5554491,60.16 43.8485246,60.16 L33,60.16 L33,46.4423245 L42.739195,36.7031295 C43.2390661,36.2032584 43.2390661,35.3928072 42.739195,34.8929361 C42.2393239,34.393065 41.4288728,34.393065 40.9290017,34.8929361 L33,42.8219378 L33,40.1527795 C33.0559563,39.939394 33.0559563,39.7143765 33,39.500991 L33,20.1442623 C33,19.4373378 32.4269245,18.8642623 31.72,18.8642623 C31.0130755,18.8642623 30.44,19.4373378 30.44,20.1442623 L30.44,36.6947247 L22.5949327,28.8496574 C22.0950617,28.3497863 21.2846105,28.3497863 20.7847394,28.8496574 C20.2848683,29.3495285 20.2848683,30.1599797 20.7847394,30.6598508 L30.44,40.3151114 Z"/>
  </g>
</svg>

<svg xmlns="http://www.w3.org/2000/svg" width="64" height="64"><path d="M64 38.82c0 8.089-6.821 14.646-15.236 14.646H15.236C6.821 53.466 0 46.91 0 38.82c0-5.803 3.54-10.91 8.792-13.265-.27-.919-.41-1.875-.41-2.85 0-5.686 4.647-10.327 10.489-10.605C19.16 5.37 24.928 0 32 0c7.072 0 12.839 5.37 13.13 12.1 5.84.278 10.488 4.92 10.488 10.604 0 .976-.14 1.932-.41 2.85C60.459 27.91 64 33.018 64 38.82ZM49.372 25.669c.6-.894.92-1.908.92-2.965 0-3.036-2.56-5.497-5.719-5.497h-2.307c-1.683 0-2.944-1.484-2.61-3.07.105-.495.158-.998.158-1.505 0-4.149-3.498-7.512-7.814-7.512s-7.814 3.363-7.814 7.512c0 .507.053 1.01.157 1.505.335 1.586-.926 3.07-2.61 3.07h-2.306c-3.159 0-5.719 2.46-5.719 5.497 0 1.057.32 2.071.92 2.965.999 1.49.159 3.48-1.637 3.88-4.456.994-7.665 4.82-7.665 9.27 0 5.262 4.437 9.527 9.91 9.527h33.528c5.473 0 9.91-4.265 9.91-9.526 0-4.451-3.209-8.277-7.665-9.27-1.796-.4-2.636-2.392-1.637-3.881Z" class="two" fill="#0F1126"/><path d="M30.44 40.315V60.16H19.675a1.28 1.28 0 0 0 0 2.56H43.85a1.28 1.28 0 1 0 0-2.56H33V46.442l9.74-9.739a1.28 1.28 0 0 0-1.811-1.81L33 42.822v-2.67a1.286 1.286 0 0 0 0-.651V20.144a1.28 1.28 0 1 0-2.56 0v16.55l-7.845-7.844a1.28 1.28 0 1 0-1.81 1.81l9.655 9.655Z" class="one" fill="#0F1126"/></svg>
